!! 00000] TT[WS
!!!OTL: Mai jindan
!!!ARE: Asia, China, Shanxi Zuoquan
!! Ethnic Group: Han
!! WII, 207 (1)
!!!SCT: J0710
!!!YEM: Copyright 1995, estate of Helmut Schaffrath.
**kern
*ICvox
*Ivox
*M2/4
*k[f#]
*G:
{8dd
8ee
4dd
=1
8dd
8ee
4dd
=2
8a
8b
8dd
8a
=3
2g}
=4
{4.e
8g
=5
8a
8b
8a
8g
=6
8e
8g
8f#
8e
=7
2d}
=8
{8a
8g
4a
=9
8r
4dd
8ee
=10
4.dd
8g
=11
8a
8b
8a
8e
=12
2d}
=13
{8dd
8b
4dd
=14
8dd
8ee
4dd
=15
8dd
8ee
8dd
8b
=16
4dd
4g
=17
8b
8b
8f#
8e
=18
2d}
==
!!!AGN: Xiaodiao. Shidiao
!!!ONB: ESAC (Essen Associative Code) Database: CHINA
!!!AMT: simple duple
!!!AIN: vox
!!!EED: Helmut Schaffrath
!!!EEV: 1.0
*-
